X: 24
M: 6/8
L: 1/8
K: C
"C"CEG "E/C"AGE | "F"FAc "D7"dcA | "G7"GBd fed | "C"edc "G7"A2G |
"C"CEG "C7"AGE | "F"FAc "D7"dcA | "G7"GBd fed |1 "C"ec"F"[cF] "C"[c2E2]E :|2 "C"ec"F"[cF] "C"[c2E2]e ||
|: "C"gec Gce | "G7"fdB GBd | "C"ecG EGc | "Dm"dec "G7"BAG |
[1 "C"gec Gce | "G7"fdB GBd | "C"ede "G7"fdB | "C"dc"F"c "C"c2e :|
[2 "C"CEG "G7"AGE | "F"FAc "D7"dcA | "G7"GBd fed | "C"ec"F"c "C"c3 |]
published by the RSCDS Leicester Branch. Deviser, Shirley Campbell called the dance "Just a Dance",
so what better tune title could I use than "Just a Tune".  The tune was  recorded  by  the  Lothian


